X: 1
T: Spanish Lady
R: polka
M: 4/4
L: 1/4
K: Dmaj
P: [A]
A/G/ |FA AB/c/| dd d/e/f | ge fd | BA A|
A/G/ | FA AB/c/|dd d/e/f  | ge fd | BA A2 ||
P: B
fa a>f|ed de|fa a>f|ed e2|
fa a>f|ed de/f/|ge fd|BA A2:|
FA AB/c/|d>c de/f/|ge fd|BA A/B/A/G/|
FA AB/c/|d>c de/f/|ge fd|BA A2:|

